X:280
T:Prior to the Fire
S:Trad
M:4/4
L:1/8
R:Jig
K:D
|:ddd A2G|F2G A3|ddd efg|fed e3|
|dd A2G|F2G A3|d2d efg|f2e d3:|
|:g2f e2d|c2B A2A|d3e3|f2g a3|
|g2f e2d|c2B A2A|d2d efg|f2e d3:|
